X: 2
T: Blackberry Quadrille
M:6/8
L:1/8
S: Viola "Mom" Ruth - Pioneer Western Folk Tunes (1948)
Z:AK/Fiddler's Companion
K:G
d2d ed^c|d2B G2B|A2F D2D|B2A G2 (B/c/)|d2d ed^c|d2B G2B|
A2A DEF|G3 G3 (B/c/):|
|:d2d e2d|B2d b2b|c'2d def|g2a b2 (B/c/)|d2d e2d|B2d b2b|c'2d def|g3g2:|

%%sep 1 1 500
